X: 12
T: Banshee, The
C: James McMahon
Z: Fernando Durbán Galnares
S: https://thesession.org/tunes/8#setting39346
R: reel
M: 4/4
L: 1/8
K: Gmaj
"G"G2G1D EDEG|"Am"AGA1B "D7"d2 Bd|"C"eged "G"BAGA|"Am"BAGE "D7"EDEF|
"G"G2G1D EDEG|"Am"AGA1B "D7"d2 Bd|"C"eged "G"BAGA|"Am"BAGE "D7"EDD2||
"Am"eaag efge|"G"dBBA "Bm"B2Bd|"Em"eBBB eBgB|eBBA B2Bd|
"Am"eaag efge|"G"dBBA "Bm"B2Bd|"C"eged "G"BAGA|"Am"BAGE "D7"EDD2||

